static/images/text-logo.svg

<svg height="49" viewBox="0 0 399 49" width="399" xmlns="http://www.w3.org/2000/svg" xmlns:xlink="http://www.w3.org/1999/xlink"><filter id="a" height="412.5%" width="120.8%" x="-10.4%" y="-156.2%"><feGaussianBlur in="SourceGraphic" stdDeviation="50"/></filter><g fill="none" fill-rule="evenodd" transform="translate(-175 -28)"><path d="m0 0h1440v96h-1440z" filter="url(#a)"/><g fill="#fff"><path d="m21.0219063 21.2782987 13.6039628-16.22858794h-15.4544582l-9.8960414 11.78374354 9.0009917 10.7528541-8.58217975 10.1913699 4.19505025 1.1932654-8.36930842.732177-.7326734-8.3692935 1.90297064 3.9236571 6.43762488-7.6711759-9.00594217-10.7528541 9.87722947-11.78374354h-13.80099255v-4.95048713h39.60396745v4.95048713l-13.6326757 16.22858794 11.7297051 13.9791856 1.9029706-3.9236571-.7316833 8.3692935-8.3693084-.732177 4.1940602-1.1932654z" transform="translate(175 28)"/><path d="m245.304 66.576c3.744 0 6.632-.88 8.664-2.64s3.048-4.192 3.048-7.296c0-1.088-.144-2.128-.432-3.12s-.776-1.888-1.464-2.688-1.592-1.488-2.712-2.064-2.496-1.008-4.128-1.296l-3.6-.624c-2.368-.416-4.008-1.096-4.92-2.04s-1.368-2.168-1.368-3.672c0-1.92.608-3.36 1.824-4.32s2.96-1.44 5.232-1.44c2.08 0 3.776.384 5.088 1.152s2.432 1.76 3.36 2.976l2.832-2.448c-1.12-1.632-2.6-2.896-4.44-3.792s-4.104-1.344-6.792-1.344c-3.424 0-6.144.784-8.16 2.352s-3.024 3.888-3.024 6.96c0 1.056.144 2.072.432 3.048s.768 1.872 1.44 2.688 1.56 1.512 2.664 2.088 2.472 1.008 4.104 1.296l3.744.624c2.304.384 3.92 1.032 4.848 1.944s1.392 2.184 1.392 3.816c0 2.016-.64 3.584-1.92 4.704s-3.136 1.68-5.568 1.68c-2.016 0-3.752-.4-5.208-1.2s-2.84-2.016-4.152-3.648l-2.928 2.4c1.248 1.728 2.832 3.144 4.752 4.248s4.384 1.656 7.392 1.656zm39.744-.576v-3.264h-11.28v-18.24h11.28v-3.264h-11.28v-8.736h-3.696v6.48c0 .832-.168 1.416-.504 1.752s-.92.504-1.752.504h-6.144v3.264h8.256v15.84c0 1.664.44 3.024 1.32 4.08s2.264 1.584 4.152 1.584zm15.216.576c2.016 0 3.624-.408 4.824-1.224s2.072-1.944 2.616-3.384h.24c.16 1.152.56 2.112 1.2 2.88s1.712 1.152 3.216 1.152h2.64v-3.36h-3.456v-13.632c0-2.624-.856-4.672-2.568-6.144s-4.024-2.208-6.936-2.208c-1.248 0-2.384.136-3.408.408s-1.936.64-2.736 1.104-1.472 1-2.016 1.608-.976 1.232-1.296 1.872l2.592 1.92c.64-1.12 1.488-2.008 2.544-2.664s2.416-.984 4.08-.984c1.888 0 3.344.456 4.368 1.368s1.536 2.28 1.536 4.104v2.448h-5.28c-3.744 0-6.456.624-8.136 1.872s-2.52 3.024-2.52 5.328c0 2.336.768 4.176 2.304 5.52s3.6 2.016 6.192 2.016zm.672-3.216c-1.6 0-2.856-.328-3.768-.984s-1.368-1.624-1.368-2.904v-1.008c0-1.216.528-2.144 1.584-2.784s2.736-.96 5.04-.96h5.28v4.08c0 .64-.168 1.24-.504 1.8s-.808 1.04-1.416 1.44-1.32.72-2.136.96-1.72.36-2.712.36zm41.712 2.64v-3.264h-11.28v-18.24h11.28v-3.264h-11.28v-8.736h-3.696v6.48c0 .832-.168 1.416-.504 1.752s-.92.504-1.752.504h-6.144v3.264h8.256v15.84c0 1.664.44 3.024 1.32 4.08s2.264 1.584 4.152 1.584zm19.488-30.24c1.12 0 1.904-.232 2.352-.696s.672-1.048.672-1.752v-.768c0-.704-.224-1.288-.672-1.752s-1.232-.696-2.352-.696-1.904.232-2.352.696-.672 1.048-.672 1.752v.768c0 .704.224 1.288.672 1.752s1.232.696 2.352.696zm10.272 30.24v-3.264h-8.352v-21.504h-12.768v3.264h8.928v18.24h-8.928v3.264zm17.856.576c2.496 0 4.52-.544 6.072-1.632s2.696-2.464 3.432-4.128l-2.736-1.872c-.64 1.344-1.504 2.4-2.592 3.168s-2.464 1.152-4.128 1.152c-1.152 0-2.176-.184-3.072-.552s-1.648-.888-2.256-1.56-1.064-1.472-1.368-2.4-.456-1.936-.456-3.024v-4.224c0-1.088.152-2.096.456-3.024s.76-1.728 1.368-2.4 1.352-1.192 2.232-1.56 1.88-.552 3-.552c1.536 0 2.824.352 3.864 1.056s1.784 1.696 2.232 2.976l3.072-1.632c-.704-1.696-1.808-3.072-3.312-4.128s-3.456-1.584-5.856-1.584c-1.76 0-3.328.304-4.704.912s-2.544 1.48-3.504 2.616-1.696 2.504-2.208 4.104-.768 3.376-.768 5.328.248 3.728.744 5.328 1.224 2.96 2.184 4.08 2.136 1.992 3.528 2.616 2.984.936 4.776.936zm29.04 0c1.536 0 2.864-.208 3.984-.624s2.08-.976 2.88-1.68 1.472-1.488 2.016-2.352 1.024-1.76 1.44-2.688l-3.456-1.584c-.288.736-.624 1.432-1.008 2.088s-.84 1.232-1.368 1.728-1.152.888-1.872 1.176-1.592.432-2.616.432c-2.656 0-4.632-1.008-5.928-3.024s-1.944-4.704-1.944-8.064v-5.472c0-3.36.648-6.048 1.944-8.064s3.272-3.024 5.928-3.024c1.024 0 1.896.144 2.616.432s1.344.68 1.872 1.176.984 1.072 1.368 1.728.72 1.352 1.008 2.088l3.456-1.584c-.416-.896-.896-1.784-1.44-2.664s-1.216-1.672-2.016-2.376-1.76-1.264-2.88-1.68-2.448-.624-3.984-.624c-4.096 0-7.144 1.488-9.144 4.464s-3 7.264-3 12.864 1 9.888 3 12.864 5.048 4.464 9.144 4.464zm21.84-.576v-17.184c0-.8.176-1.504.528-2.112s.816-1.104 1.392-1.488 1.232-.672 1.968-.864 1.488-.288 2.256-.288c1.92 0 3.376.552 4.368 1.656s1.488 2.792 1.488 5.064v15.216h3.84v-15.888c0-3.008-.784-5.336-2.352-6.984s-3.648-2.472-6.24-2.472c-1.024 0-1.92.128-2.688.384s-1.432.592-1.992 1.008-1.032.904-1.416 1.464-.704 1.144-.96 1.752h-.192v-14.784h-3.84v35.52zm31.92.576c2.016 0 3.624-.408 4.824-1.224s2.072-1.944 2.616-3.384h.24c.16 1.152.56 2.112 1.2 2.88s1.712 1.152 3.216 1.152h2.64v-3.36h-3.456v-13.632c0-2.624-.856-4.672-2.568-6.144s-4.024-2.208-6.936-2.208c-1.248 0-2.384.136-3.408.408s-1.936.64-2.736 1.104-1.472 1-2.016 1.608-.976 1.232-1.296 1.872l2.592 1.92c.64-1.12 1.488-2.008 2.544-2.664s2.416-.984 4.08-.984c1.888 0 3.344.456 4.368 1.368s1.536 2.28 1.536 4.104v2.448h-5.28c-3.744 0-6.456.624-8.136 1.872s-2.52 3.024-2.52 5.328c0 2.336.768 4.176 2.304 5.52s3.6 2.016 6.192 2.016zm.672-3.216c-1.6 0-2.856-.328-3.768-.984s-1.368-1.624-1.368-2.904v-1.008c0-1.216.528-2.144 1.584-2.784s2.736-.96 5.04-.96h5.28v4.08c0 .64-.168 1.24-.504 1.8s-.808 1.04-1.416 1.44-1.32.72-2.136.96-1.72.36-2.712.36zm40.848 2.64v-3.264h-9.6v-10.704c0-2.08.68-3.76 2.04-5.04s3.144-1.92 5.352-1.92h4.656v-3.84h-3.456c-2.208 0-4.024.552-5.448 1.656s-2.392 2.632-2.904 4.584h-.24v-6.24h-11.088v3.264h7.248v18.24h-7.248v3.264zm18.864 10.176c4.16 0 7.28-.6 9.36-1.8s3.12-3.048 3.12-5.544c0-2.016-.72-3.624-2.16-4.824s-3.76-1.8-6.96-1.8h-5.472c-1.184 0-2.144-.12-2.88-.36s-1.104-.728-1.104-1.464c0-.416.112-.784.336-1.104s.512-.6.864-.84.736-.432 1.152-.576.816-.248 1.2-.312c.384.064.768.112 1.152.144s.784.048 1.2.048c1.44 0 2.76-.208 3.96-.624s2.216-1 3.048-1.752 1.48-1.656 1.944-2.712.696-2.208.696-3.456c0-1.312-.24-2.496-.72-3.552s-1.168-1.968-2.064-2.736v-1.68h5.568v-3.36h-4.56c-1.088 0-1.856.32-2.304.96s-.672 1.44-.672 2.4v.432c-1.408-.672-3.04-1.008-4.896-1.008-1.44 0-2.752.208-3.936.624s-2.2 1-3.048 1.752-1.496 1.656-1.944 2.712-.672 2.208-.672 3.456c0 1.76.424 3.296 1.272 4.608s2.04 2.304 3.576 2.976v.192c-1.28.32-2.344.8-3.192 1.44s-1.272 1.6-1.272 2.88c0 .832.192 1.52.576 2.064s.928.992 1.632 1.344v.576c-1.28.352-2.272.896-2.976 1.632s-1.056 1.776-1.056 3.12c0 1.984.872 3.504 2.616 4.56s4.616 1.584 8.616 1.584zm-.192-21.408c-1.92 0-3.328-.448-4.224-1.344s-1.344-2.08-1.344-3.552v-1.392c0-1.472.448-2.648 1.344-3.528s2.304-1.32 4.224-1.32 3.336.44 4.248 1.32 1.368 2.056 1.368 3.528v1.392c0 1.472-.456 2.656-1.368 3.552s-2.328 1.344-4.248 1.344zm1.968 18.336h-3.744c-2.016 0-3.456-.392-4.32-1.176s-1.296-1.72-1.296-2.808c0-1.568.832-2.688 2.496-3.36h8.592c1.984 0 3.376.296 4.176.888s1.2 1.384 1.2 2.376c0 1.344-.624 2.36-1.872 3.048s-2.992 1.032-5.232 1.032zm27.408-6.528c2.464 0 4.552-.536 6.264-1.608s2.936-2.44 3.672-4.104l-2.832-1.92c-.64 1.344-1.568 2.4-2.784 3.168s-2.656 1.152-4.32 1.152c-1.152 0-2.2-.184-3.144-.552s-1.744-.888-2.4-1.56-1.16-1.472-1.512-2.4-.528-1.936-.528-3.024v-1.152h18.336v-1.824c0-1.76-.256-3.376-.768-4.848s-1.248-2.744-2.208-3.816-2.12-1.912-3.48-2.52-2.872-.912-4.536-.912c-1.696 0-3.24.304-4.632.912s-2.584 1.48-3.576 2.616-1.768 2.504-2.328 4.104-.84 3.392-.84 5.376c0 1.952.272 3.72.816 5.304s1.32 2.944 2.328 4.08 2.224 2.008 3.648 2.616 3.032.912 4.824.912zm6.624-14.88h-14.208v-.336c0-1.088.184-2.088.552-3s.88-1.704 1.536-2.376 1.432-1.2 2.328-1.584 1.872-.576 2.928-.576c1.024 0 1.96.176 2.808.528s1.568.856 2.16 1.512 1.056 1.432 1.392 2.328.504 1.888.504 2.976z" fill-rule="nonzero"/></g></g></svg>

<?xml version="1.0" encoding="UTF-8"?>
<svg width="399px" height="49px" viewBox="0 0 399 49" version="1.1" xmlns="http://www.w3.org/2000/svg" xmlns:xlink="http://www.w3.org/1999/xlink">
    <defs>
        <filter x="-10.4%" y="-156.2%" width="120.8%" height="412.5%" filterUnits="objectBoundingBox" id="filter-1">
            <feGaussianBlur stdDeviation="50" in="SourceGraphic"></feGaussianBlur>
        </filter>
    </defs>
    <g id="Symbols" stroke="none" stroke-width="1" fill="none" fill-rule="evenodd">
        <g id="Nav" transform="translate(-175.000000, -28.000000)">
            <g>
                <rect id="Rectangle" filter="url(#filter-1)" x="0" y="0" width="1440" height="96"></rect>
                <g id="StaticCharge" transform="translate(175.000000, 28.000000)" fill="#FFFFFF">
                    <polygon id="Path" points="21.0219063 21.2782987 34.6258691 5.04971076 19.1714109 5.04971076 9.2753695 16.8334543 18.2763612 27.5863084 9.69418145 37.7776783 13.8892317 38.9709437 5.51992328 39.7031207 4.78724988 31.3338272 6.69022052 35.2574843 13.1278454 27.5863084 4.12190323 16.8334543 13.9991327 5.04971076 0.198140147 5.04971076 0.198140147 0.0992236267 39.8021076 0.0992236267 39.8021076 5.04971076 26.1694319 21.2782987 37.899137 35.2574843 39.8021076 31.3338272 39.0704243 39.7031207 30.7011159 38.9709437 34.8951761 37.7776783"></polygon>
                </g>
                <path d="M245.304,66.576 C249.048,66.576 251.936,65.696 253.968,63.936 C256,62.176 257.016,59.744 257.016,56.64 C257.016,55.552 256.872,54.512 256.584,53.52 C256.296,52.528 255.808,51.632 255.12,50.832 C254.432,50.032 253.528,49.344 252.408,48.768 C251.288,48.192 249.912,47.76 248.28,47.472 L248.28,47.472 L244.68,46.848 C242.312,46.432 240.672,45.752 239.76,44.808 C238.848,43.864 238.392,42.64 238.392,41.136 C238.392,39.216 239,37.776 240.216,36.816 C241.432,35.856 243.176,35.376 245.448,35.376 C247.528,35.376 249.224,35.76 250.536,36.528 C251.848,37.296 252.968,38.288 253.896,39.504 L253.896,39.504 L256.728,37.056 C255.608,35.424 254.128,34.16 252.288,33.264 C250.448,32.368 248.184,31.92 245.496,31.92 C242.072,31.92 239.352,32.704 237.336,34.272 C235.32,35.84 234.312,38.16 234.312,41.232 C234.312,42.288 234.456,43.304 234.744,44.28 C235.032,45.256 235.512,46.152 236.184,46.968 C236.856,47.784 237.744,48.48 238.848,49.056 C239.952,49.632 241.32,50.064 242.952,50.352 L242.952,50.352 L246.696,50.976 C249,51.36 250.616,52.008 251.544,52.92 C252.472,53.832 252.936,55.104 252.936,56.736 C252.936,58.752 252.296,60.32 251.016,61.44 C249.736,62.56 247.88,63.12 245.448,63.12 C243.432,63.12 241.696,62.72 240.24,61.92 C238.784,61.12 237.4,59.904 236.088,58.272 L236.088,58.272 L233.16,60.672 C234.408,62.4 235.992,63.816 237.912,64.92 C239.832,66.024 242.296,66.576 245.304,66.576 Z M285.048,66 L285.048,62.736 L273.768,62.736 L273.768,44.496 L285.048,44.496 L285.048,41.232 L273.768,41.232 L273.768,32.496 L270.072,32.496 L270.072,38.976 C270.072,39.808 269.904,40.392 269.568,40.728 C269.232,41.064 268.648,41.232 267.816,41.232 L267.816,41.232 L261.672,41.232 L261.672,44.496 L269.928,44.496 L269.928,60.336 C269.928,62 270.368,63.36 271.248,64.416 C272.128,65.472 273.512,66 275.4,66 L275.4,66 L285.048,66 Z M300.264,66.576 C302.28,66.576 303.888,66.168 305.088,65.352 C306.288,64.536 307.16,63.408 307.704,61.968 L307.704,61.968 L307.944,61.968 C308.104,63.12 308.504,64.08 309.144,64.848 C309.784,65.616 310.856,66 312.36,66 L312.36,66 L315,66 L315,62.64 L311.544,62.64 L311.544,49.008 C311.544,46.384 310.688,44.336 308.976,42.864 C307.264,41.392 304.952,40.656 302.04,40.656 C300.792,40.656 299.656,40.792 298.632,41.064 C297.608,41.336 296.696,41.704 295.896,42.168 C295.096,42.632 294.424,43.168 293.88,43.776 C293.336,44.384 292.904,45.008 292.584,45.648 L292.584,45.648 L295.176,47.568 C295.816,46.448 296.664,45.56 297.72,44.904 C298.776,44.248 300.136,43.92 301.8,43.92 C303.688,43.92 305.144,44.376 306.168,45.288 C307.192,46.2 307.704,47.568 307.704,49.392 L307.704,49.392 L307.704,51.84 L302.424,51.84 C298.68,51.84 295.968,52.464 294.288,53.712 C292.608,54.96 291.768,56.736 291.768,59.04 C291.768,61.376 292.536,63.216 294.072,64.56 C295.608,65.904 297.672,66.576 300.264,66.576 Z M300.936,63.36 C299.336,63.36 298.08,63.032 297.168,62.376 C296.256,61.72 295.8,60.752 295.8,59.472 L295.8,59.472 L295.8,58.464 C295.8,57.248 296.328,56.32 297.384,55.68 C298.44,55.04 300.12,54.72 302.424,54.72 L302.424,54.72 L307.704,54.72 L307.704,58.8 C307.704,59.44 307.536,60.04 307.2,60.6 C306.864,61.16 306.392,61.64 305.784,62.04 C305.176,62.44 304.464,62.76 303.648,63 C302.832,63.24 301.928,63.36 300.936,63.36 Z M342.648,66 L342.648,62.736 L331.368,62.736 L331.368,44.496 L342.648,44.496 L342.648,41.232 L331.368,41.232 L331.368,32.496 L327.672,32.496 L327.672,38.976 C327.672,39.808 327.504,40.392 327.168,40.728 C326.832,41.064 326.248,41.232 325.416,41.232 L325.416,41.232 L319.272,41.232 L319.272,44.496 L327.528,44.496 L327.528,60.336 C327.528,62 327.968,63.36 328.848,64.416 C329.728,65.472 331.112,66 333,66 L333,66 L342.648,66 Z M362.136,35.76 C363.256,35.76 364.04,35.528 364.488,35.064 C364.936,34.6 365.16,34.016 365.16,33.312 L365.16,33.312 L365.16,32.544 C365.16,31.84 364.936,31.256 364.488,30.792 C364.04,30.328 363.256,30.096 362.136,30.096 C361.016,30.096 360.232,30.328 359.784,30.792 C359.336,31.256 359.112,31.84 359.112,32.544 L359.112,32.544 L359.112,33.312 C359.112,34.016 359.336,34.6 359.784,35.064 C360.232,35.528 361.016,35.76 362.136,35.76 Z M372.408,66 L372.408,62.736 L364.056,62.736 L364.056,41.232 L351.288,41.232 L351.288,44.496 L360.216,44.496 L360.216,62.736 L351.288,62.736 L351.288,66 L372.408,66 Z M390.264,66.576 C392.76,66.576 394.784,66.032 396.336,64.944 C397.888,63.856 399.032,62.48 399.768,60.816 L399.768,60.816 L397.032,58.944 C396.392,60.288 395.528,61.344 394.44,62.112 C393.352,62.88 391.976,63.264 390.312,63.264 C389.16,63.264 388.136,63.08 387.24,62.712 C386.344,62.344 385.592,61.824 384.984,61.152 C384.376,60.48 383.92,59.68 383.616,58.752 C383.312,57.824 383.16,56.816 383.16,55.728 L383.16,55.728 L383.16,51.504 C383.16,50.416 383.312,49.408 383.616,48.48 C383.92,47.552 384.376,46.752 384.984,46.08 C385.592,45.408 386.336,44.888 387.216,44.52 C388.096,44.152 389.096,43.968 390.216,43.968 C391.752,43.968 393.04,44.32 394.08,45.024 C395.12,45.728 395.864,46.72 396.312,48 L396.312,48 L399.384,46.368 C398.68,44.672 397.576,43.296 396.072,42.24 C394.568,41.184 392.616,40.656 390.216,40.656 C388.456,40.656 386.888,40.96 385.512,41.568 C384.136,42.176 382.968,43.048 382.008,44.184 C381.048,45.32 380.312,46.688 379.8,48.288 C379.288,49.888 379.032,51.664 379.032,53.616 C379.032,55.568 379.28,57.344 379.776,58.944 C380.272,60.544 381,61.904 381.96,63.024 C382.92,64.144 384.096,65.016 385.488,65.64 C386.88,66.264 388.472,66.576 390.264,66.576 Z M419.304,66.576 C420.84,66.576 422.168,66.368 423.288,65.952 C424.408,65.536 425.368,64.976 426.168,64.272 C426.968,63.568 427.64,62.784 428.184,61.92 C428.728,61.056 429.208,60.16 429.624,59.232 L429.624,59.232 L426.168,57.648 C425.88,58.384 425.544,59.08 425.16,59.736 C424.776,60.392 424.32,60.968 423.792,61.464 C423.264,61.96 422.64,62.352 421.92,62.64 C421.2,62.928 420.328,63.072 419.304,63.072 C416.648,63.072 414.672,62.064 413.376,60.048 C412.08,58.032 411.432,55.344 411.432,51.984 L411.432,51.984 L411.432,46.512 C411.432,43.152 412.08,40.464 413.376,38.448 C414.672,36.432 416.648,35.424 419.304,35.424 C420.328,35.424 421.2,35.568 421.92,35.856 C422.64,36.144 423.264,36.536 423.792,37.032 C424.32,37.528 424.776,38.104 425.16,38.76 C425.544,39.416 425.88,40.112 426.168,40.848 L426.168,40.848 L429.624,39.264 C429.208,38.368 428.728,37.48 428.184,36.6 C427.64,35.72 426.968,34.928 426.168,34.224 C425.368,33.52 424.408,32.96 423.288,32.544 C422.168,32.128 420.84,31.92 419.304,31.92 C415.208,31.92 412.16,33.408 410.16,36.384 C408.16,39.36 407.16,43.648 407.16,49.248 C407.16,54.848 408.16,59.136 410.16,62.112 C412.16,65.088 415.208,66.576 419.304,66.576 Z M441.144,66 L441.144,48.816 C441.144,48.016 441.32,47.312 441.672,46.704 C442.024,46.096 442.488,45.6 443.064,45.216 C443.64,44.832 444.296,44.544 445.032,44.352 C445.768,44.16 446.52,44.064 447.288,44.064 C449.208,44.064 450.664,44.616 451.656,45.72 C452.648,46.824 453.144,48.512 453.144,50.784 L453.144,50.784 L453.144,66 L456.984,66 L456.984,50.112 C456.984,47.104 456.2,44.776 454.632,43.128 C453.064,41.48 450.984,40.656 448.392,40.656 C447.368,40.656 446.472,40.784 445.704,41.04 C444.936,41.296 444.272,41.632 443.712,42.048 C443.152,42.464 442.68,42.952 442.296,43.512 C441.912,44.072 441.592,44.656 441.336,45.264 L441.336,45.264 L441.144,45.264 L441.144,30.48 L437.304,30.48 L437.304,66 L441.144,66 Z M473.064,66.576 C475.08,66.576 476.688,66.168 477.888,65.352 C479.088,64.536 479.96,63.408 480.504,61.968 L480.504,61.968 L480.744,61.968 C480.904,63.12 481.304,64.08 481.944,64.848 C482.584,65.616 483.656,66 485.16,66 L485.16,66 L487.8,66 L487.8,62.64 L484.344,62.64 L484.344,49.008 C484.344,46.384 483.488,44.336 481.776,42.864 C480.064,41.392 477.752,40.656 474.84,40.656 C473.592,40.656 472.456,40.792 471.432,41.064 C470.408,41.336 469.496,41.704 468.696,42.168 C467.896,42.632 467.224,43.168 466.68,43.776 C466.136,44.384 465.704,45.008 465.384,45.648 L465.384,45.648 L467.976,47.568 C468.616,46.448 469.464,45.56 470.52,44.904 C471.576,44.248 472.936,43.92 474.6,43.92 C476.488,43.92 477.944,44.376 478.968,45.288 C479.992,46.2 480.504,47.568 480.504,49.392 L480.504,49.392 L480.504,51.84 L475.224,51.84 C471.48,51.84 468.768,52.464 467.088,53.712 C465.408,54.96 464.568,56.736 464.568,59.04 C464.568,61.376 465.336,63.216 466.872,64.56 C468.408,65.904 470.472,66.576 473.064,66.576 Z M473.736,63.36 C472.136,63.36 470.88,63.032 469.968,62.376 C469.056,61.72 468.6,60.752 468.6,59.472 L468.6,59.472 L468.6,58.464 C468.6,57.248 469.128,56.32 470.184,55.68 C471.24,55.04 472.92,54.72 475.224,54.72 L475.224,54.72 L480.504,54.72 L480.504,58.8 C480.504,59.44 480.336,60.04 480,60.6 C479.664,61.16 479.192,61.64 478.584,62.04 C477.976,62.44 477.264,62.76 476.448,63 C475.632,63.24 474.728,63.36 473.736,63.36 Z M514.584,66 L514.584,62.736 L504.984,62.736 L504.984,52.032 C504.984,49.952 505.664,48.272 507.024,46.992 C508.384,45.712 510.168,45.072 512.376,45.072 L512.376,45.072 L517.032,45.072 L517.032,41.232 L513.576,41.232 C511.368,41.232 509.552,41.784 508.128,42.888 C506.704,43.992 505.736,45.52 505.224,47.472 L505.224,47.472 L504.984,47.472 L504.984,41.232 L493.896,41.232 L493.896,44.496 L501.144,44.496 L501.144,62.736 L493.896,62.736 L493.896,66 L514.584,66 Z M533.448,76.176 C537.608,76.176 540.728,75.576 542.808,74.376 C544.888,73.176 545.928,71.328 545.928,68.832 C545.928,66.816 545.208,65.208 543.768,64.008 C542.328,62.808 540.008,62.208 536.808,62.208 L536.808,62.208 L531.336,62.208 C530.152,62.208 529.192,62.088 528.456,61.848 C527.72,61.608 527.352,61.12 527.352,60.384 C527.352,59.968 527.464,59.6 527.688,59.28 C527.912,58.96 528.2,58.68 528.552,58.44 C528.904,58.2 529.288,58.008 529.704,57.864 C530.12,57.72 530.52,57.616 530.904,57.552 C531.288,57.616 531.672,57.664 532.056,57.696 C532.44,57.728 532.84,57.744 533.256,57.744 C534.696,57.744 536.016,57.536 537.216,57.12 C538.416,56.704 539.432,56.12 540.264,55.368 C541.096,54.616 541.744,53.712 542.208,52.656 C542.672,51.6 542.904,50.448 542.904,49.2 C542.904,47.888 542.664,46.704 542.184,45.648 C541.704,44.592 541.016,43.68 540.12,42.912 L540.12,42.912 L540.12,41.232 L545.688,41.232 L545.688,37.872 L541.128,37.872 C540.04,37.872 539.272,38.192 538.824,38.832 C538.376,39.472 538.152,40.272 538.152,41.232 L538.152,41.232 L538.152,41.664 C536.744,40.992 535.112,40.656 533.256,40.656 C531.816,40.656 530.504,40.864 529.32,41.28 C528.136,41.696 527.12,42.28 526.272,43.032 C525.424,43.784 524.776,44.688 524.328,45.744 C523.88,46.8 523.656,47.952 523.656,49.2 C523.656,50.96 524.08,52.496 524.928,53.808 C525.776,55.12 526.968,56.112 528.504,56.784 L528.504,56.784 L528.504,56.976 C527.224,57.296 526.16,57.776 525.312,58.416 C524.464,59.056 524.04,60.016 524.04,61.296 C524.04,62.128 524.232,62.816 524.616,63.36 C525,63.904 525.544,64.352 526.248,64.704 L526.248,64.704 L526.248,65.28 C524.968,65.632 523.976,66.176 523.272,66.912 C522.568,67.648 522.216,68.688 522.216,70.032 C522.216,72.016 523.088,73.536 524.832,74.592 C526.576,75.648 529.448,76.176 533.448,76.176 Z M533.256,54.768 C531.336,54.768 529.928,54.32 529.032,53.424 C528.136,52.528 527.688,51.344 527.688,49.872 L527.688,49.872 L527.688,48.48 C527.688,47.008 528.136,45.832 529.032,44.952 C529.928,44.072 531.336,43.632 533.256,43.632 C535.176,43.632 536.592,44.072 537.504,44.952 C538.416,45.832 538.872,47.008 538.872,48.48 L538.872,48.48 L538.872,49.872 C538.872,51.344 538.416,52.528 537.504,53.424 C536.592,54.32 535.176,54.768 533.256,54.768 Z M535.224,73.104 L531.48,73.104 C529.464,73.104 528.024,72.712 527.16,71.928 C526.296,71.144 525.864,70.208 525.864,69.12 C525.864,67.552 526.696,66.432 528.36,65.76 L528.36,65.76 L536.952,65.76 C538.936,65.76 540.328,66.056 541.128,66.648 C541.928,67.24 542.328,68.032 542.328,69.024 C542.328,70.368 541.704,71.384 540.456,72.072 C539.208,72.76 537.464,73.104 535.224,73.104 L535.224,73.104 Z M562.632,66.576 C565.096,66.576 567.184,66.04 568.896,64.968 C570.608,63.896 571.832,62.528 572.568,60.864 L572.568,60.864 L569.736,58.944 C569.096,60.288 568.168,61.344 566.952,62.112 C565.736,62.88 564.296,63.264 562.632,63.264 C561.48,63.264 560.432,63.08 559.488,62.712 C558.544,62.344 557.744,61.824 557.088,61.152 C556.432,60.48 555.928,59.68 555.576,58.752 C555.224,57.824 555.048,56.816 555.048,55.728 L555.048,55.728 L555.048,54.576 L573.384,54.576 L573.384,52.752 C573.384,50.992 573.128,49.376 572.616,47.904 C572.104,46.432 571.368,45.16 570.408,44.088 C569.448,43.016 568.288,42.176 566.928,41.568 C565.568,40.96 564.056,40.656 562.392,40.656 C560.696,40.656 559.152,40.96 557.76,41.568 C556.368,42.176 555.176,43.048 554.184,44.184 C553.192,45.32 552.416,46.688 551.856,48.288 C551.296,49.888 551.016,51.68 551.016,53.664 C551.016,55.616 551.288,57.384 551.832,58.968 C552.376,60.552 553.152,61.912 554.16,63.048 C555.168,64.184 556.384,65.056 557.808,65.664 C559.232,66.272 560.84,66.576 562.632,66.576 Z M569.256,51.696 L555.048,51.696 L555.048,51.36 C555.048,50.272 555.232,49.272 555.6,48.36 C555.968,47.448 556.48,46.656 557.136,45.984 C557.792,45.312 558.568,44.784 559.464,44.4 C560.36,44.016 561.336,43.824 562.392,43.824 C563.416,43.824 564.352,44 565.2,44.352 C566.048,44.704 566.768,45.208 567.36,45.864 C567.952,46.52 568.416,47.296 568.752,48.192 C569.088,49.088 569.256,50.08 569.256,51.168 L569.256,51.168 L569.256,51.696 Z" id="StaticCharge" fill="#FFFFFF" fill-rule="nonzero"></path>
            </g>
        </g>
    </g>
</svg>
